!!!!SEGMENT: Wil1003e-Missa_Queramus_cum_pastoribus-Agnus
!!!id: Wil1003e
!!!AGN: Mass; Agnus
!!!voices: 3-5
!!!OPR: Missa Queramus cum pastoribus
!!!COM: Adrian Willaert
!!!OTL: Agnus
**kern	**kern	**kern	**kern	**kern
*part5	*part4	*part3	*part2	*part1
*staff5	*staff4	*staff3	*staff2	*staff1
*I"Bassus	*I"Tenor II	*I"Tenor I	*I"Altus	*I"Superius
*I'B	*I'T. II	*I'T. I	*I'A	*I'S
*clefF4	*clefGv2	*clefGv2	*clefG2	*clefG2
*k[b-]	*k[b-]	*k[b-]	*k[b-]	*k[b-]
*F:	*F:	*F:	*F:	*F:
*M2/1	*M2/1	*M2/1	*M2/1	*M2/1
*met(C|)	*met(C|)	*met(C|)	*met(C|)	*met(C|)
=1	=1	=1	=1	=1
!!section: Agnus Dei I
!!!OMD: Agnus Dei I
0r	0r	0r	0r	0cc
=2	=2	=2	=2	=2
0r	0r	0r	0r	1a
.	.	.	.	1b-y
=3	=3	=3	=3	=3
0r	0r	0r	0f	2.a
.	.	.	.	4b-y
.	.	.	.	2cc
.	.	.	.	[2dd
=4	=4	=4	=4	=4
0r	0r	0r	1c	4dd]
.	.	.	.	4cc
.	.	.	.	1cc
.	.	.	1d	.
.	.	.	.	2bnXi
=5	=5	=5	=5	=5
1r	0r	0r	2.c	1cc
.	.	.	4B-y	.
[1F	.	.	4A	1cc
.	.	.	4G	.
.	.	.	[2A	.
=6	=6	=6	=6	=6
1F]	0c	0r	4A]	1f
.	.	.	4F	.
.	.	.	2.f	.
1C	.	.	.	1g
.	.	.	8eL	.
.	.	.	8dJ	.
.	.	.	2e	.
=7	=7	=7	=7	=7
1D	1A	0r	4f	[0f
.	.	.	4e	.
.	.	.	4d	.
.	.	.	4c	.
1BB-y	1B-y	.	2d	.
.	.	.	2d	.
=8	=8	=8	=8	=8
0F	2.A	0r	2.c	0f]
.	4B-y	.	4B-y	.
.	2c	.	4A	.
.	.	.	4G	.
.	[2d	.	2A	.
=9	=9	=9	=9	=9
1C	4d]	0r	1G	0r
.	4c	.	.	.
.	1c	.	.	.
1D	.	.	2r	.
.	2BnXi	.	2d	.
=10	=10	=10	=10	=10
1C	2.c	0r	2e	0cc
.	.	.	2.g	.
.	4d	.	.	.
1c	4e	.	.	.
.	4f	.	4f	.
.	[2g	.	2e	.
=11	=11	=11	=11	=11
1F	4g]	0r	2d	1a
.	4f	.	.	.
.	1f	.	2c	.
1G	.	.	1g	1b-y
.	2e	.	.	.
=12	=12	=12	=12	=12
[0F	1f	0r	1c	1a
.	[1c	.	[1f	2.a
.	.	.	.	4b-y
=13	=13	=13	=13	=13
1F]	2c]	0r	0f]	1cc
.	2A	.	.	.
1r	1B-y	.	.	1dd
=14	=14	=14	=14	=14
1.F	2.A	0r	1r	2.cc
.	4B-y	.	.	4b-y
.	2c	.	[1f	4a
.	.	.	.	4g
2BB-y	[2d	.	.	[2b-y
=15	=15	=15	=15	=15
1F	4d]	0r	1f]	2b-]
.	4c	.	.	.
.	1c	.	.	2a
1G	.	.	1d	2b-y
.	2B-y	.	.	2g
=16	=16	=16	=16	=16
1F	1c	0r	1f	1a
2.C	1c	.	2.e	1g
4D	.	.	4f	.
=17	=17	=17	=17	=17
2E	0c	0r	2g	2r
1F	.	.	2.a	2.cc
.	.	.	4g	4dd
2C	.	.	[2g	2ee
=18	=18	=18	=18	=18
1D	1A	0r	2g]	2ff
.	.	.	2f	2dd
1C	[1c	.	1g	2ee
.	.	.	.	[2cc
=19	=19	=19	=19	=19
0F	0c]	0r	1f	4cc]
.	.	.	.	4b-y
.	.	.	.	4a
.	.	.	.	4g
.	.	.	2r	1a
.	.	.	2f	.
=20	=20	=20	=20	=20
2r	2.B-y	0r	2f	1f
1B-y	.	.	1d	.
.	4c	.	.	.
.	4d	.	.	1f
.	4e	.	.	.
2A	[2f	.	2c	.
=21	=21	=21	=21	=21
2B-y	2f]	0r	2d	1g
2c	2e	.	2e	.
2F	1d	.	[1f	2.a
[2F	.	.	.	.
.	.	.	.	4g
=22	=22	=22	=22	=22
2F]	1c	0r	0f]	4a
.	.	.	.	4f
2F	.	.	.	2.ff
2D	[1d	.	.	.
.	.	.	.	4ee
2BB-y	.	.	.	[2dd
=23	=23	=23	=23	=23
2.D	1d]	0r	2r	2dd]
.	.	.	1f	4cc
4E	.	.	.	4b-y
1F	1c	.	.	2a
.	.	.	2f	[2cc
=24	=24	=24	=24	=24
1r	2r	0r	1e	2cc]
.	2A	.	.	2cc
2r	2.A	.	1c	2a
[2F	.	.	.	2f
.	4B-y	.	.	.
=25	=25	=25	=25	=25
2F]	2c	0r	1f	2.a
2D	2d	.	.	.
.	.	.	.	4b-y
2.A	[1c	.	2f	2.cc
.	.	.	[2e	.
4B-y	.	.	.	4b-y
=26	=26	=26	=26	=26
2c	1c]	0r	2e]	2g
1F	.	.	2.c	1a
.	1F	.	.	.
.	.	.	8dL	.
.	.	.	8eJ	.
4E	.	.	[2f	4g
4D	.	.	.	4f
=27	=27	=27	=27	=27
1C	2r	0r	2f]	1g
.	1c	.	2e	.
[1F	.	.	2.f	2f
.	2c	.	.	[2cc
.	.	.	4e	.
=28	=28	=28	=28	=28
1F]	2A	0r	2c	4cc]
.	.	.	.	4b-y
.	2F	.	1f	1a
1D	2.A	.	.	.
.	.	.	4e	4g
.	4B-y	.	4d	4f
=29	=29	=29	=29	=29
2.C	2.c	0r	1e	2a
.	.	.	.	1g
4D	4B-y	.	.	.
2E	2G	.	1c	.
2F	[2A	.	.	2f
=30	=30	=30	=30	=30
2C	2A]	0r	1r	2e
2D	4G	.	.	1f
.	4F	.	.	.
1C	1G	.	2r	.
.	.	.	[2c	2e
=31	=31	=31	=31	=31
2r	0F	0r	2c]	2.f
1D	.	.	2A	.
.	.	.	.	4g
.	.	.	1d	2a
2BB-y	.	.	.	2b-y
=32	=32	=32	=32	=32
1.F	1.A	0r	1c	2.cc
.	.	.	.	4b-y
.	.	.	1f	2cc
2D	2A	.	.	[2dd
=33	=33	=33	=33	=33
0G	2B-y	0r	1.d	4dd]
.	.	.	.	4cc
.	2G	.	.	4b-y
.	.	.	.	4a
.	[1d	.	.	1b-y
.	.	.	4c	.
.	.	.	4B-y	.
=34	=34	=34	=34	=34
[0Fl	1d]	0r	[0fl	[0al
.	[1cl	.	.	.
=35	=35	=35	=35	=35
0F]	0c]	0r	0f]	0a]
=36||	=36||	=36||	=36||	=36||
*M2/1	*M2/1	*M2/1	*M2/1	*M2/1
*met(C|)	*met(C|)	*met(C|)	*met(C|)	*met(C|)
!!section: Agnus Dei II
!!!OMD: Agnus Dei II
0c	0r	0r	0r	0r
=37	=37	=37	=37	=37
1A	0r	0r	[0f	0r
[1B-y	.	.	.	.
=38	=38	=38	=38	=38
2B-]	0r	0r	0f]	0r
4A	.	.	.	.
4G	.	.	.	.
2F	.	.	.	.
[2A	.	.	.	.
=39	=39	=39	=39	=39
2A]	0r	0r	0e	0r
4G	.	.	.	.
4F	.	.	.	.
1G	.	.	.	.
=40	=40	=40	=40	=40
2F	0r	0r	1.f	0r
2.D	.	.	.	.
4E	.	.	.	.
[2F	.	.	4e	.
.	.	.	4d	.
=41	=41	=41	=41	=41
2F]	0r	0r	2.c	0r
4E	.	.	.	.
4D	.	.	4d	.
4C	.	.	4e	.
4D	.	.	4f	.
4E	.	.	[2g	.
4F	.	.	.	.
=42	=42	=42	=42	=42
4G	0r	0r	2g]	0r
4A	.	.	.	.
1B-y	.	.	4f	.
.	.	.	4e	.
.	.	.	2.d	.
4A	.	.	.	.
4G	.	.	4e	.
=43	=43	=43	=43	=43
2F	0r	0r	2f	0r
1c	.	.	2e	.
.	.	.	1d	.
2BnXi	.	.	.	.
=44	=44	=44	=44	=44
1c	0r	0r	2r	0cc
.	.	.	2.A	.
[1F	.	.	.	.
.	.	.	4B-y	.
.	.	.	[2c	.
=45	=45	=45	=45	=45
1F]	0r	0r	2c]	1a
.	.	.	4B-y	.
.	.	.	4A	.
1r	.	.	4G	[1b-y
.	.	.	4A	.
.	.	.	4B-y	.
.	.	.	4c	.
=46	=46	=46	=46	=46
2r	0r	0r	4d	2b-]
.	.	.	4e	.
2.D	.	.	1f	4a
.	.	.	.	4g
.	.	.	.	2f
4E	.	.	.	.
[2F	.	.	4e	[2a
.	.	.	4d	.
=47	=47	=47	=47	=47
2F]	0r	0r	2c	2a]
4E	.	.	2d	4g
4D	.	.	.	4f
2C	.	.	2e	1g
2BB-y	.	.	[2d	.
=48	=48	=48	=48	=48
2.D	0r	0r	2d]	2f
.	.	.	4c	2.a
4E	.	.	4B-y	.
2.F	.	.	1A	.
.	.	.	.	4b-y
.	.	.	.	[2cc
4G	.	.	.	.
=49	=49	=49	=49	=49
4A	0r	0r	2.c	2cc]
4B-y	.	.	.	.
1c	.	.	.	4b-y
.	.	.	4d	4a
.	.	.	4e	4g
.	.	.	4f	4a
2G	.	.	[2g	4b-y
.	.	.	.	4cc
=50	=50	=50	=50	=50
2.B-y	0r	0r	2g]	4dd
.	.	.	.	4ee
.	.	.	2f	1ff
4A	.	.	.	.
2F	.	.	2a	.
2G	.	.	4g	4ee
.	.	.	4f	4dd
=51	=51	=51	=51	=51
2A	0r	0r	2e	2cc
2F	.	.	2a	1ff
1c	.	.	1g	.
.	.	.	.	2ee
=52	=52	=52	=52	=52
1F	0r	0r	1r	2dd
.	.	.	.	1cc
2E	.	.	2r	.
2F	.	.	[2f	4b-y
.	.	.	.	4a
=53	=53	=53	=53	=53
1C	0r	0r	2f]	1g
.	.	.	2e	.
1F	.	.	2.f	2r
.	.	.	.	[2a
.	.	.	4e	.
=54	=54	=54	=54	=54
1r	0r	0r	2c	2a]
.	.	.	2e	1g
2r	.	.	1d	.
[2B-y	.	.	.	2f
=55	=55	=55	=55	=55
2B-]	0r	0r	1c	2g
2A	.	.	.	4f
.	.	.	.	4e
2.B-y	.	.	1r	2d
.	.	.	.	[2dd
4A	.	.	.	.
=56	=56	=56	=56	=56
2F	0r	0r	2r	2dd]
2A	.	.	1f	2cc
1G	.	.	.	2dd
.	.	.	2e	4cc
.	.	.	.	4b-y
=57	=57	=57	=57	=57
2.F	0r	0r	2f	2a
.	.	.	4e	1ff
4G	.	.	4d	.
1A	.	.	2c	.
.	.	.	[2a	2ee
=58	=58	=58	=58	=58
0r	0r	0r	2a]	2ff
.	.	.	2g	4ee
.	.	.	.	4dd
.	.	.	2a	2cc
.	.	.	4g	[2dd
.	.	.	4f	.
=59	=59	=59	=59	=59
0r	0r	0r	1e	2dd]
.	.	.	.	2cc
.	.	.	2r	2.dd
.	.	.	[2d	.
.	.	.	.	4cc
=60	=60	=60	=60	=60
2r	0r	0r	2d]	1a
1F	.	.	2c	.
.	.	.	2d	1r
2E	.	.	4c	.
.	.	.	4B-y	.
=61	=61	=61	=61	=61
2F	0r	0r	2A	0r
4E	.	.	1f	.
4D	.	.	.	.
2C	.	.	.	.
[2A	.	.	2e	.
=62	=62	=62	=62	=62
2A]	0r	0r	2f	1r
2G	.	.	4e	.
.	.	.	4d	.
2A	.	.	2c	2r
2D	.	.	[2d	[2ff
=63	=63	=63	=63	=63
1A	0r	0r	2d]	2ff]
.	.	.	1c	2ee
2F	.	.	.	2ff
2G	.	.	[2g	4ee
.	.	.	.	4dd
=64	=64	=64	=64	=64
2A	0r	0r	2g]	2cc
2D	.	.	2f	2.dd
2E	.	.	2g	.
.	.	.	.	4cc
2F	.	.	4f	[2cc
.	.	.	4e	.
=65	=65	=65	=65	=65
1G	0r	0r	1d	2cc]
.	.	.	.	2bnXi
2r	.	.	1c	1cc
2c	.	.	.	.
=66	=66	=66	=66	=66
2B-y	0r	0r	2.f	1r
2A	.	.	.	.
.	.	.	4e	.
2.d	.	.	4f	2r
.	.	.	4g	.
.	.	.	2a	2f
4c	.	.	.	.
=67	=67	=67	=67	=67
2B-y	0r	0r	2d	2g
2A	.	.	1f	2a
2B-y	.	.	.	2f
2G	.	.	2e	[2b-y
=68	=68	=68	=68	=68
2.d	0r	0r	0f	2b-]
.	.	.	.	2a
4c	.	.	.	.
2B-y	.	.	.	2dd
2A	.	.	.	[2cc
=69	=69	=69	=69	=69
2c	0r	0r	1r	4cc]
.	.	.	.	4b-y
2d	.	.	.	1a
1B-y	.	.	2r	.
.	.	.	2d	2g
=70	=70	=70	=70	=70
1A	0r	0r	2e	1a
.	.	.	2f	.
2r	.	.	2.d	1f
2B-y	.	.	.	.
.	.	.	4e	.
=71	=71	=71	=71	=71
2A	0r	0r	2f	0r
2G	.	.	1g	.
2.B-y	.	.	.	.
.	.	.	2f	.
4A	.	.	.	.
=72	=72	=72	=72	=72
2G	0r	0r	2b-y	0r
2F	.	.	2.a	.
2.A	.	.	.	.
.	.	.	4g	.
.	.	.	[2f	.
4B-y	.	.	.	.
=73	=73	=73	=73	=73
1G	0r	0r	2f]	2r
.	.	.	2e	2g
2F	.	.	2f	2a
2G	.	.	[2d	2b-y
=74	=74	=74	=74	=74
1E	0r	0r	2d]	2.g
.	.	.	2c	.
.	.	.	.	4a
2D	.	.	2B-y	2b-y
2C	.	.	[2e-i	[2cc
=75	=75	=75	=75	=75
1G	0r	0r	2e-]	2cc]
.	.	.	2d	2b-y
2C	.	.	2c	2ee-i
2D	.	.	[2f	[2dd
=76	=76	=76	=76	=76
2BB-y	0r	0r	2f]	4dd]
.	.	.	.	4cc
2C	.	.	2e	1cc
1G	.	.	1d	.
.	.	.	.	2bnXi
=77	=77	=77	=77	=77
0Cl	0r	0r	0cl	0ccl
=78||	=78||	=78||	=78||	=78||
*M2/1	*M2/1	*M2/1	*M2/1	*M2/1
*met(C|)	*met(C|)	*met(C|)	*met(C|)	*met(C|)
!!section: Agnus Dei III
!!!OMD: Agnus Dei III
0F	0c	1.A	1r	0r
.	.	.	[1f	.
.	.	2B-y	.	.
=79	=79	=79	=79	=79
0F	1.A	1.c	1f]	0r
.	.	.	1a	.
.	4G	2d	.	.
.	4F	.	.	.
=80	=80	=80	=80	=80
1C	1c	1e	1g	1r
[1F	1A	1c	2.f	2r
.	.	.	.	2a
.	.	.	4g	.
=81	=81	=81	=81	=81
2F]	1.c	1f	0a	2a
2G	.	.	.	2b-y
2.A	.	1e	.	[1cc
.	2d	.	.	.
4B-y	.	.	.	.
=82	=82	=82	=82	=82
1c	2.e	1r	1g	2cc]
.	.	.	.	2dd
.	4f	.	.	.
[1C	2g	2r	2r	1ee
.	[2g	2c	[2e	.
=83	=83	=83	=83	=83
1C]	4g]	2.c	4e]	1.cc
.	4f	.	4f	.
.	4e	.	1g	.
.	4d	4d	.	.
1r	2c	2e	.	.
.	[2d	[2f	2f	4b-y
.	.	.	.	4a
=84	=84	=84	=84	=84
2r	2d]	4f]	2d	2b-y
.	.	4g	.	.
2C	1c	2e	2g	2cc
2F	.	1d	2a	2a
2G	2B-y	.	4g	[2b-y
.	.	.	4f	.
=85	=85	=85	=85	=85
2A	1c	2c	2e	4b-]
.	.	.	.	4a
2F	.	2A	2f	1a
1G	2r	1B-y	2.d	.
.	2B-y	.	.	2g
.	.	.	4e	.
=86	=86	=86	=86	=86
1.F	2A	2.c	1f	1a
.	2F	.	.	.
.	.	4B-y	.	.
.	1c	2A	1r	1r
2E	.	2G	.	.
=87	=87	=87	=87	=87
1D	2B-y	1d	2r	0r
.	2A	.	2f	.
[1G	2.G	2.B-y	2e	.
.	.	.	2d	.
.	4A	4c	.	.
=88	=88	=88	=88	=88
1G]	4B-y	2d	1g	0r
.	4c	.	.	.
.	2.d	2.B-y	.	.
1r	.	.	2f	.
.	4c	4A	.	.
.	[2c	2c	2e	.
=89	=89	=89	=89	=89
2r	2c]	1G	2.d	2r
2G	2B-y	.	.	2b-y
.	.	.	4e	.
2F	2c	1r	2f	2a
2B-y	2d	.	[2g	2g
=90	=90	=90	=90	=90
1A	2c	2r	2g]	1cc
.	2A	2c	2f	.
[1G	2B-y	2d	2.g	2.b-y
.	[2d	[2B-y	.	.
.	.	.	4f	4a
=91	=91	=91	=91	=91
2G]	2d]	2B-]	2d	2.g
2E	2c	2c	2e	.
.	.	.	.	4a
2D	2B-y	2d	2f	2b-y
2C	2e-i	4G	2g	[2cc
.	.	4A	.	.
=92	=92	=92	=92	=92
1G	1d	4B-y	1g	2cc]
.	.	4c	.	.
.	.	2d	.	2bnXi
2C	2c	2.e	2r	1cc
2C	2G	.	2c	.
.	.	4c	.	.
=93	=93	=93	=93	=93
2BB-y	2B-y	2d	2f	2r
2E-i	2G	1c	2g	2cc
1D	1d	.	2a	2ff
.	.	2BnXi	2f	2ff
=94	=94	=94	=94	=94
0C	0G	2c	1.g	2.ee
.	.	2c	.	.
.	.	.	.	4dd
.	.	1e-X	.	1cc
.	.	.	2c	.
=95	=95	=95	=95	=95
0r	1F	1c	1f	1a
.	2G	1B-y	1d	2g
.	2A	.	.	2b-y
=96	=96	=96	=96	=96
1r	1c	2r	2c	2a
.	.	2c	2e	2g
1F	1A	1f	2d	2f
.	.	.	2c	[2cc
=97	=97	=97	=97	=97
1G	1G	1d	1g	2cc]
.	.	.	.	2bnXi
1C	1r	1c	1e	1cc
=98	=98	=98	=98	=98
1D	1A	1F	2d	0r
.	.	.	2f	.
2r	2G	1B-y	2e	.
2BB-y	2B-y	.	2d	.
=99	=99	=99	=99	=99
2F	2A	2c	2c	0r
2G	2G	2B-y	1g	.
2A	2F	1c	.	.
2A	[2c	.	2f#i	.
=100	=100	=100	=100	=100
1G	2c]	1d	2g	1r
.	2BnXi	.	2G	.
1r	1c	2c	2A	1a
.	.	[2e	[2c	.
=101	=101	=101	=101	=101
1G	1r	2e]	2c]	2g
.	.	2d	2B-y	2b-y
2F	1c	2f	2c	2a
2C	.	2e	2g	2g
=102	=102	=102	=102	=102
1F	2.A	2d	2.a	2f
.	.	1c	.	1cc
.	4B-y	.	8gL	.
.	.	.	8fJ	.
1r	2c	.	2e	.
.	2d	[2f	2f	2bnXi
=103	=103	=103	=103	=103
0r	1c	2f]	1g	1cc
.	.	2e	.	.
.	2F	1f	1a	1r
.	2F	.	.	.
=104	=104	=104	=104	=104
2r	2.G	2.B-y	2d	1r
2G	.	.	2d	.
.	4A	4c	.	.
2G	2B-y	2d	2g	2r
2C	2c	2e	2g	2cc
=105	=105	=105	=105	=105
1F	2.A	1c	1a	2.cc
.	4B-y	.	.	4dd
2E	2c	2r	2g	2ee
2D	[2d	2A	[2f	2ff
=106	=106	=106	=106	=106
2r	4d]	2.B-y	2f]	1dd
.	4c	.	.	.
2G	4B-y	.	2d	.
.	4A	4c	.	.
2G	2B-y	2d	2g	2r
2C	2c	2e	2g	2cc
=107	=107	=107	=107	=107
1F	2.A	1c	1a	2.cc
.	4B-y	.	.	4dd
2E	2c	2r	2g	2ee
2D	[2d	2A	2f	2ff
=108	=108	=108	=108	=108
2.G	4d]	2.B-y	2r	1dd
.	4c	.	.	.
.	4B-y	.	1b-y	.
4A	4A	4c	.	.
2B-y	2G	2d	.	2r
2c	[2c	2e	2g	2cc
=109	=109	=109	=109	=109
2F	2c]	1c	2.a	2.cc
2.A	1F	.	.	.
.	.	.	4g	4b-y
.	.	2.c	2f	2a
4G	.	.	.	.
2E	2G	.	4e	[2g
.	.	4B-y	4d	.
=110	=110	=110	=110	=110
2F	2A	2A	2c	4g]
.	.	.	.	4f
2BB-y	2B-y	2d	2d	1f
1C	1G	1c	1g	.
.	.	.	.	2e
=111	=111	=111	=111	=111
1F	[0Fl	1A	1c	[0fl
1BB-y	.	1B-y	1d	.
=112	=112	=112	=112	=112
0Fl	0F]	0Al	0cl	0f]
==	==	==	==	==
*-	*-	*-	*-	*-
!!!system-decoration: s1,s2,s3,s4,s5
!!!RDF**kern: i = editorial accidental
!!!RDF**kern: l = terminal long
!!!ENC: Maura Sugg
!!!END: 2026/3/20
!!!EED: Benjamin Ory
!!!EEV: 2026/03/24
!!!YEC: Copyright 2026 Benjamin Ory, All Rights Reserved
!!!ONB: Translated from MusicXML on 2026/03/24
!!!verovio: header encoded
!!!header-left: Edited by Irene Holzer\n
!!!header-right:
!!!header-center: